logo/partytown-icon.svg

<?xml version="1.0" encoding="UTF-8"?>
<svg width="256px" height="268px" viewBox="0 0 256 268" version="1.1" xmlns="http://www.w3.org/2000/svg" xmlns:xlink="http://www.w3.org/1999/xlink"  preserveAspectRatio="xMidYMid">
    <title>Partytown</title>
    <g>
        <path d="M22.498377,68.9706199 C26.7723169,69.0351529 30.7495075,66.79199 32.9053237,63.1010303 C35.0611398,59.4100706 35.0611398,54.8439098 32.9053237,51.1529501 C30.7495075,47.4619904 26.7723169,45.2188275 22.498377,45.2833605 C16.0270441,45.3810723 10.8322264,50.6549196 10.8322264,57.1269902 C10.8322264,63.5990608 16.0270441,68.8729081 22.498377,68.9706199 L22.498377,68.9706199 Z M203.890998,58.9292523 C208.164944,58.9932963 212.141877,56.7496797 214.297271,53.058475 C216.452665,49.3672703 216.452145,44.801111 214.295909,41.1103978 C212.139673,37.4196846 208.162229,35.1769747 203.888298,35.241993 C197.416974,35.3404397 192.222754,40.6148799 192.223492,47.0869524 C192.22423,53.559025 197.419652,58.8322809 203.890998,58.9292523 L203.890998,58.9292523 Z" fill="#FF37AD"></path>
        <path d="M213.503062,211.096876 C217.777008,211.16092 221.753941,208.917304 223.909336,205.226099 C226.06473,201.534894 226.064209,196.968735 223.907974,193.278022 C221.751738,189.587309 217.774294,187.344599 213.500362,187.409617 C207.029038,187.508064 201.834819,192.782504 201.835557,199.254576 C201.836294,205.726649 207.031716,210.999905 213.503062,211.096876 L213.503062,211.096876 Z M70.8719025,23.6886152 C75.1458424,23.7531482 79.123033,21.5099853 81.2788492,17.8190256 C83.4346653,14.1280659 83.4346653,9.56190513 81.2788492,5.87094542 C79.123033,2.17998571 75.1458424,-0.0631771582 70.8719025,0.00135582199 C64.4005696,0.0990676309 59.2057519,5.37291493 59.2057519,11.8449855 C59.2057519,18.3170561 64.4005696,23.5909034 70.8719025,23.6886152 Z" fill="#FCC954"></path>
        <path d="M140.945474,105.939269 C138.098854,105.939269 135.410633,104.629205 133.657688,102.386343 C131.904744,100.14348 131.282438,97.2182753 131.970614,94.4560914 C132.340516,92.9737814 132.642918,91.4860714 132.86972,90.0010614 C130.094449,91.1465601 127.138095,91.7910344 124.137861,91.9045742 C118.759425,92.1097756 113.942592,91.2025695 109.838565,89.2153561 C105.815363,87.2880622 102.465199,84.1947351 100.2238,80.3376964 C95.8092703,72.6858449 96.1899729,62.6201772 101.187707,54.6929238 C105.953239,47.1247729 114.023593,43.0288454 122.774352,43.6984499 C129.513597,44.2249534 135.421237,46.7494704 140.151669,51.0802995 C141.012974,48.6502832 141.83918,46.0474657 142.624885,43.277247 C147.457918,26.2185322 149.053629,9.08961698 149.067129,8.91681581 C149.287705,6.47487867 150.469851,4.22075039 152.353229,2.65084665 C154.236607,1.0809429 156.666756,0.324015728 159.108496,0.546759492 C164.192713,1.01036487 167.939373,5.50635744 167.478553,10.5908271 C167.411052,11.3576322 165.710041,29.6205551 160.409905,48.326281 C157.734187,57.7709445 154.572466,65.7521983 150.989542,72.1242411 C151.254143,73.5444507 151.464745,75.0024605 151.621346,76.4955705 C152.366551,83.7073191 151.772547,91.4698713 149.906834,98.9408216 C148.873586,103.049734 145.182303,105.932472 140.945474,105.939269 L140.945474,105.939269 Z M120.822239,62.1125738 C119.866432,62.1125738 118.181621,62.3933757 116.826212,64.5425901 C115.527503,66.602704 115.273701,69.4161229 116.237608,71.0874342 C117.520116,73.3095491 121.292042,73.5039504 123.427756,73.4229499 C125.852372,73.3311493 128.336389,71.811039 130.766406,69.0408204 C130.360518,68.1935553 129.881711,67.3831965 129.335396,66.6189041 C127.329282,63.8324853 124.788565,62.4068757 121.337942,62.1368739 C121.208341,62.1287739 121.03284,62.1125738 120.822239,62.1125738 L120.822239,62.1125738 Z" fill="#2890E9"></path>
        <path d="M114.361095,131.268139 C76.0181371,101.044136 35.9417675,87.9490476 24.8473928,102.021542 C23.8035316,103.360066 23.0362489,104.892796 22.5901776,106.530573 C22.5226772,106.727674 22.4686768,106.935575 22.4335766,107.140777 L22.4335766,107.165077 C22.2850756,107.796881 22.1743748,108.434085 22.1014743,109.08209 L0.393328263,236.180045 C-3.08429514,256.592182 17.1226408,272.935392 36.3602703,265.272741 L154.081062,218.365325 C156.157376,217.53912 161.265811,214.382798 162.66442,212.641287 C163.034216,212.279451 163.380524,211.894364 163.701227,211.488379 C174.792902,197.413184 152.701353,161.500243 114.361095,131.265439 L114.361095,131.268139 Z" fill="#F0A420"></path>
        <path d="M163.687727,211.493779 C174.787502,197.413184 152.704053,161.494843 114.361095,131.268139 C76.0181371,101.041436 35.9363674,87.9517476 24.8365927,102.032342 C13.7368181,116.112937 35.8202666,152.031279 74.1632247,182.257982 C112.506183,212.484686 152.587952,225.574374 163.687727,211.493779 L163.687727,211.493779 Z" fill="#FCC954"></path>
        <path d="M156.994382,203.293824 C166.101543,191.737746 146.037708,160.730737 112.17678,134.038358 C78.3158526,107.343278 43.4802182,95.0716955 34.3730569,106.625073 C25.2631956,118.181151 45.3270306,149.18816 79.1879585,175.880539 C113.048886,202.575619 147.884521,214.849902 156.994382,203.293824 L156.994382,203.293824 Z" fill="#F0A420"></path>
        <path d="M76.0586374,249.456034 C61.732341,249.526235 50.0547624,242.354987 35.9012672,231.198512 C19.4311564,218.211424 8.49338277,202.66472 7.62937695,193.81136 L2.96104554,221.138244 C5.12106008,228.935896 12.4840096,238.820663 23.1625815,247.239319 C32.0456412,254.243167 41.0070016,259.051899 50.2977641,259.718803 L76.0586374,249.453334 L76.0586374,249.456034 Z M61.726941,199.856701 C34.2839563,178.218755 16.4557363,153.389388 16.9579397,139.187292 L12.4084091,165.817572 C12.7594115,178.502257 27.5825112,199.000795 48.6696531,215.624807 C67.5643803,230.520807 87.2529127,241.004978 102.329814,238.988064 L127.923286,228.787395 C107.303248,230.213005 85.5465013,218.640727 61.726941,199.856701 Z" fill="#2E6AC9"></path>
        <path d="M118.535323,145.051732 C122.809263,145.116265 126.786454,142.873102 128.94227,139.182142 C131.098086,135.491183 131.098086,130.925022 128.94227,127.234062 C126.786454,123.543102 122.809263,121.299939 118.535323,121.364472 C112.06399,121.462184 106.869173,126.736032 106.869173,133.208102 C106.869173,139.680173 112.06399,144.95402 118.535323,145.051732 Z" fill="#2890E9"></path>
        <path d="M182.412353,122.007077 L182.498754,121.909876 C182.606754,121.793775 182.806556,121.580474 183.095458,121.288872 C183.678662,120.705668 184.615568,119.809262 185.895376,118.729255 C189.454677,115.74974 193.344866,113.189499 197.489255,111.099003 C207.617023,105.974369 222.696624,101.792041 242.474257,106.352371 C248.416605,107.722765 254.344753,104.016463 255.715146,98.0741157 C257.08554,92.131768 253.379238,86.20362 247.436891,84.8332267 C221.835318,78.9309869 201.479881,84.3283233 187.515387,91.3996708 C181.845157,94.2608625 176.524197,97.7670971 171.658181,101.848741 C170.197619,103.075538 168.791368,104.365577 167.443452,105.715167 C166.92002,106.240769 166.409563,106.779134 165.912542,107.329778 L165.793741,107.464779 L165.750541,107.513379 L165.731641,107.534979 L165.723541,107.543079 C165.720841,107.548479 165.715441,107.55388 174.085497,114.752128 L165.715441,107.55388 C161.838171,112.175298 162.386938,119.052953 166.947972,123.00108 C171.509005,126.949206 178.394311,126.50664 182.412353,122.007077 L182.412353,122.007077 Z" fill="#FF37AD"></path>
        <path d="M73.029217,43.2475468 C71.3660026,40.6058404 68.7197631,38.7347291 65.674712,38.0473003 C62.6296608,37.3598715 59.4362195,37.9126586 56.7994078,39.5836222 C54.1607305,41.2487768 52.292054,43.8943996 51.6048529,46.9379358 C50.9176518,49.981472 51.468277,53.1733498 53.1354832,55.8107314 C53.562086,56.493836 62.3128449,70.6716314 64.111057,90.087462 C65.9416693,109.813795 60.1447303,127.947117 46.8579409,144.206626 C51.331871,149.892864 56.7157073,155.803204 62.8663486,161.713544 C71.3768059,151.880078 77.778549,141.312207 81.9851773,130.131431 C87.1611121,116.374839 88.9917244,101.789341 87.4311139,86.7826398 C84.9443972,62.9090791 74.5574273,45.6721631 73.029217,43.2475468 L73.029217,43.2475468 Z" fill="#FF37AD"></path>
        <path d="M220.242308,156.578109 C226.244448,158.13062 230.486177,159.823531 232.319489,160.611937 C236.715432,163.309784 242.351098,162.856792 246.259683,159.491429 C248.811921,157.286396 250.305244,154.099461 250.36641,150.72717 C250.453545,145.570046 247.194211,140.949109 242.306856,139.300693 C236.688118,136.805876 215.401175,128.38182 187.261586,129.87763 C168.320958,130.884737 150.106636,136.130872 133.128921,145.486435 C117.053013,154.345194 102.124613,166.897579 88.5732216,182.911387 C95.0383787,187.512681 101.773499,191.722356 108.742357,195.517771 C131.625011,169.438296 158.025789,155.301001 187.442487,153.432588 C198.472923,152.76267 209.540234,153.824031 220.242308,156.578109 L220.242308,156.578109 Z" fill="#2890E9"></path>
    </g>
</svg>

<svg viewBox="0 0 256 268" xmlns="http://www.w3.org/2000/svg"><path fill="#FF37AD" d="M22.49 68.97c4.27.06 8.25-2.18 10.4-5.87 2.15-3.7 2.15-8.26 0-11.95 -2.16-3.7-6.14-5.94-10.41-5.87 -6.48.09-11.67 5.37-11.67 11.84s5.19 11.74 11.66 11.84v0Zm181.39-10.05c4.27.06 8.25-2.18 10.4-5.88 2.15-3.7 2.15-8.26-.01-11.95 -2.16-3.7-6.14-5.94-10.41-5.87 -6.48.09-11.67 5.37-11.67 11.84s5.19 11.74 11.66 11.84v0Z"/><path fill="#FCC954" d="M213.5 211.09c4.27.06 8.25-2.18 10.4-5.88 2.15-3.7 2.15-8.26-.01-11.95 -2.16-3.7-6.14-5.94-10.41-5.87 -6.48.09-11.67 5.37-11.67 11.84s5.19 11.74 11.66 11.84v0ZM70.86 23.68c4.27.06 8.25-2.18 10.4-5.87 2.15-3.7 2.15-8.26 0-11.95 -2.16-3.7-6.14-5.94-10.41-5.87 -6.48.09-11.67 5.37-11.67 11.84s5.19 11.74 11.66 11.84Z"/><path fill="#2890E9" d="M140.94 105.93c-2.85 0-5.54-1.32-7.29-3.56 -1.76-2.25-2.38-5.17-1.69-7.94 .36-1.49.67-2.98.89-4.46 -2.78 1.14-5.74 1.78-8.74 1.9 -5.38.2-10.2-.71-14.3-2.69 -4.03-1.93-7.38-5.03-9.62-8.88 -4.42-7.66-4.04-17.72.96-25.65 4.76-7.57 12.83-11.67 21.58-11 6.73.52 12.64 3.05 17.37 7.38 .86-2.44 1.68-5.04 2.47-7.81 4.83-17.06 6.42-34.19 6.44-34.37 .22-2.45 1.4-4.7 3.28-6.27 1.88-1.57 4.31-2.33 6.75-2.11 5.08.46 8.83 4.95 8.37 10.04 -.07.76-1.77 19.02-7.07 37.73 -2.68 9.44-5.84 17.42-9.43 23.79 .26 1.42.47 2.87.63 4.37 .74 7.21.15 14.97-1.72 22.44 -1.04 4.1-4.73 6.99-8.97 6.99v0ZM120.81 62.1c-.96 0-2.65.28-4 2.43 -1.3 2.06-1.56 4.87-.59 6.54 1.28 2.22 5.05 2.41 7.19 2.33 2.42-.1 4.9-1.62 7.33-4.39 -.41-.85-.89-1.66-1.44-2.43 -2.01-2.79-4.55-4.22-8-4.49 -.13-.01-.31-.03-.52-.03v0Z"/><path fill="#F0A420" d="M114.36 131.26c-38.35-30.23-78.42-43.32-89.52-29.25 -1.05 1.33-1.82 2.87-2.26 4.5 -.07.19-.13.4-.16.61v.02c-.15.63-.26 1.26-.34 1.91L.37 236.14c-3.48 20.41 16.72 36.75 35.96 29.09l117.72-46.91c2.07-.83 7.18-3.99 8.58-5.73 .36-.37.71-.75 1.03-1.16 11.09-14.08-11-49.99-49.35-80.23v0Z"/><path fill="#FCC954" d="M163.68 211.49c11.09-14.09-10.99-50-49.33-80.23C76 101.03 35.92 87.94 24.82 102.02c-11.1 14.08 10.98 49.99 49.32 80.22 38.34 30.22 78.42 43.31 89.52 29.23v0Z"/><path fill="#F0A420" d="M156.99 203.29c9.1-11.56-10.96-42.57-44.82-69.26 -33.87-26.7-68.7-38.97-77.81-27.42 -9.11 11.55 10.95 42.56 44.81 69.25 33.86 26.69 68.69 38.96 77.8 27.41v0Z"/><path fill="#2E6AC9" d="M76.05 249.45c-14.33.07-26.01-7.11-40.16-18.26C19.41 218.2 8.48 202.65 7.61 193.8l-4.67 27.32c2.16 7.79 9.52 17.68 20.2 26.1 8.88 7 17.84 11.81 27.13 12.47l25.76-10.27v0Zm-14.34-49.6c-27.45-21.64-45.28-46.47-44.77-60.67l-4.55 26.63c.35 12.68 15.17 33.18 36.26 49.8 18.89 14.89 38.58 25.38 53.66 23.36l25.59-10.21c-20.63 1.42-42.38-10.15-66.2-28.94Z"/><path fill="#2890E9" d="M118.53 145.05c4.27.06 8.25-2.18 10.4-5.87 2.15-3.7 2.15-8.26 0-11.95 -2.16-3.7-6.14-5.94-10.41-5.87 -6.48.09-11.67 5.37-11.67 11.84s5.19 11.74 11.66 11.84Z"/><g fill="#FF37AD"><path d="M182.41 122l.08-.1c.1-.12.3-.33.59-.63 .58-.59 1.52-1.48 2.79-2.56 3.55-2.98 7.44-5.54 11.59-7.64 10.12-5.13 25.2-9.31 44.98-4.75 5.94 1.37 11.87-2.34 13.24-8.28 1.37-5.95-2.34-11.88-8.28-13.25 -25.61-5.91-45.96-.51-59.93 6.56 -5.68 2.86-11 6.36-15.86 10.44 -1.47 1.22-2.87 2.51-4.22 3.86 -.53.52-1.04 1.06-1.54 1.61l-.12.13 -.05.04 -.02.02 -.01 0c-.01 0-.01.01 8.36 7.2l-8.38-7.2c-3.88 4.62-3.33 11.49 1.23 15.44 4.56 3.94 11.44 3.5 15.46-1v0Z"/><path d="M73.02 43.24c-1.67-2.65-4.31-4.52-7.36-5.21 -3.05-.69-6.24-.14-8.88 1.53 -2.64 1.66-4.51 4.31-5.2 7.35 -.69 3.04-.14 6.23 1.53 8.87 .42.68 9.17 14.86 10.97 34.27 1.83 19.72-3.97 37.85-17.26 54.11 4.47 5.68 9.85 11.59 16 17.5 8.51-9.84 14.91-20.41 19.11-31.59 5.17-13.76 7-28.35 5.44-43.35 -2.49-23.88-12.88-41.12-14.41-43.54v0Z"/></g><path fill="#2890E9" d="M220.24 156.57c6 1.55 10.24 3.24 12.07 4.03 4.39 2.69 10.03 2.24 13.94-1.13 2.55-2.21 4.04-5.4 4.1-8.77 .08-5.16-3.18-9.78-8.06-11.43 -5.62-2.5-26.91-10.92-55.05-9.43 -18.95 1-37.16 6.25-54.14 15.6 -16.08 8.85-31.01 21.41-44.56 37.42 6.46 4.6 13.2 8.81 20.16 12.6 22.88-26.08 49.28-40.22 78.7-42.09 11.03-.67 22.09.39 32.79 3.14v0Z"/></svg>
